static/assets/img/icons/theme/design/picker.svg

<svg height="24" viewBox="0 0 24 24" width="24" xmlns="http://www.w3.org/2000/svg"><g fill="none" fill-rule="evenodd"><path d="m0 0h24v24h-24z" opacity="0"/><g fill="#000"><path d="m10.232233 10.232233 3.535534 3.535534-5.30330091 5.3033008c-.97631073.9763107-2.55922317.9763107-3.5355339 0s-.97631073-2.5592232 0-3.5355339z"/><path d="m13.767767 6.69669914 1.7677669-1.76776695c.9763107-.97631073 2.5592232-.97631073 3.5355339 0s.9763107 2.55922317 0 3.5355339l-1.7677669 1.76776691 1.0606601 1.0606602c.5857865.5857865.5857865 1.5355339 0 2.1213204-.5857864.5857864-1.5355339.5857864-2.1213203 0l-5.6568543-5.65685429c-.5857864-.58578643-.5857864-1.5355339 0-2.12132034.5857865-.58578644 1.5355339-.58578644 2.1213204 0z" opacity=".3"/></g></g></svg>

<svg width="24px" height="24px" viewBox="0 0 24 24" version="1.1" xmlns="http://www.w3.org/2000/svg" xmlns:xlink="http://www.w3.org/1999/xlink">
    <title>Icon For Picker</title>
    <g stroke="none" stroke-width="1" fill="none" fill-rule="evenodd">
        <rect opacity="0" x="0" y="0" width="24" height="24"></rect>
        <path d="M10.232233,10.232233 L13.767767,13.767767 L8.46446609,19.0710678 C7.48815536,20.0473785 5.90524292,20.0473785 4.92893219,19.0710678 C3.95262146,18.0947571 3.95262146,16.5118446 4.92893219,15.5355339 L10.232233,10.232233 Z" fill="#000000"></path>
        <path d="M13.767767,6.69669914 L15.5355339,4.92893219 C16.5118446,3.95262146 18.0947571,3.95262146 19.0710678,4.92893219 C20.0473785,5.90524292 20.0473785,7.48815536 19.0710678,8.46446609 L17.3033009,10.232233 L18.363961,11.2928932 C18.9497475,11.8786797 18.9497475,12.8284271 18.363961,13.4142136 C17.7781746,14 16.8284271,14 16.2426407,13.4142136 L10.5857864,7.75735931 C10,7.17157288 10,6.22182541 10.5857864,5.63603897 C11.1715729,5.05025253 12.1213203,5.05025253 12.7071068,5.63603897 L13.767767,6.69669914 Z" fill="#000000" opacity="0.3"></path>
    </g>
</svg>
